X: 771
T: Missa Laudate Dominum Et unam sanctam Credo
C: Giovanni Perluigi da Palestrina
L: 1/4
M: 4/2
N: Derived from Credo_80_f.krn
Q: "Credo"
V: 1 clef=treble
V: 2 clef=treble
V: 3 clef=treble-8
V: 4 clef=bass
V: 5 clef=treble
V: 6 clef=treble
V: 7 clef=treble-8
V: 8 clef=bass
K: F
[V:1] z4z2G2 | 
[V:2] z4E4 | 
[V:3] G4G2G2 | 
[V:4] z4C,4 | 
[V:5] z8 | 
[V:6] z8 | 
[V:7] z8 | 
[V:8] z8 | 
[V:1] G2G2A4 | 
[V:2] E2E2F4 | 
[V:3] c4c2A2 | 
[V:4] C,2C,2F,4 | 
[V:5] z8 | 
[V:6] z8 | 
[V:7] z8 | 
[V:8] z8 | 
[V:1] A2A2B3B | 
[V:2] F2F2B,CDE | 
[V:3] d6B2 | 
[V:4] F,2D,2G,3G, | 
[V:5] z8 | 
[V:6] z8 | 
[V:7] z8 | 
[V:8] z8 | 
[V:1] AGABcBAG | 
[V:2] F2F2C4- | 
[V:3] c2>B2A4- | 
[V:4] F,8- | 
[V:5] z4A4 | 
[V:6] z4F4 | 
[V:7] z4z2c2 | 
[V:8] z4F,,4 | 
[V:1] F4z4 | 
[V:2] C4z4 | 
[V:3] A4z4 | 
[V:4] F,4z4 | 
[V:5] c2c2B3B | 
[V:6] F2F2F3F | 
[V:7] A2A2d3d | 
[V:8] F,,2F,,2B,,3B,, | 
[V:1] z8 | 
[V:2] z8 | 
[V:3] z8 | 
[V:4] z8 | 
[V:5] B2B2A2B2 | 
[V:6] F2G2F2F2 | 
[V:7] d2d2d2d2 | 
[V:8] B,,2G,,2D,2D,2 | 
[V:1] z2C2G3G | 
[V:2] z4z2C2 | 
[V:3] z8 | 
[V:4] z8 | 
[V:5] c8- | 
[V:6] E8- | 
[V:7] G8- | 
[V:8] C,8- | 
[V:1] G2CDEFG2- | 
[V:2] G2>G2G2CD | 
[V:3] z2C2c3c | 
[V:4] z8 | 
[V:5] c4z4 | 
[V:6] E4z4 | 
[V:7] G4z4 | 
[V:8] C,4z4 | 
[V:1] G2A2>G2G2- | 
[V:2] ED/ E/F2>D2_E2 | 
[V:3] c2FGABc2 | 
[V:4] z8 | 
[V:5] z8 | 
[V:6] z8 | 
[V:7] z8 | 
[V:8] z8 | 
[V:1] GFF4E2 | 
[V:2] D2C2C4 | 
[V:3] B2A2G4 | 
[V:4] z4z2C,2 | 
[V:5] z8 | 
[V:6] z8 | 
[V:7] z8 | 
[V:8] z8 | 
[V:1] F8 | 
[V:2] C2A,2C2D2 | 
[V:3] F2c2A2B2- | 
[V:4] F,2>F,2F,2B,,C, | 
[V:5] z8 | 
[V:6] z8 | 
[V:7] z8 | 
[V:8] z8 | 
[V:1] z2C2D2E2 | 
[V:2] F2>E2D2C2- | 
[V:3] B2AGAGG2 | 
[V:4] D,E,F,2F,2E,2 | 
[V:5] z8 | 
[V:6] z8 | 
[V:7] z8 | 
[V:8] z8 | 
[V:1] F4E4 | 
[V:2] C2=B,2C4 | 
[V:3] F4G4 | 
[V:4] D,4C,4 | 
[V:5] z4z2G2- | 
[V:6] z4z2E2- | 
[V:7] z4z2c2- | 
[V:8] z4z2C,2- | 
[V:1] z8 | 
[V:2] z8 | 
[V:3] z8 | 
[V:4] z8 | 
[V:5] G2G2G2G2 | 
[V:6] E2D2E2E2 | 
[V:7] c2d2c2c2 | 
[V:8] C,2=B,,2C,2C,2 | 
[V:1] z2G2A4 | 
[V:2] z2D4A,2 | 
[V:3] z4d3d | 
[V:4] z2G,4F,2 | 
[V:5] B4A4 | 
[V:6] D8 | 
[V:7] B2G2z2d2- | 
[V:8] G,,4D,4 | 
[V:1] =B2B2c4 | 
[V:2] D2G2G4 | 
[V:3] d2d2c3B | 
[V:4] G,2G,2C,4 | 
[V:5] G8 | 
[V:6] D4E4 | 
[V:7] d2G4c2- | 
[V:8] G,,2G,,2C,4 | 
[V:1] c4z2c2 | 
[V:2] F2C2>D2E2 | 
[V:3] A2F2z2G2 | 
[V:4] F,4C,4 | 
[V:5] A2>B2c4 | 
[V:6] F4G2C2 | 
[V:7] cBA2G4 | 
[V:8] F,,2F,4E,2 | 
[V:1] A4G4 | 
[V:2] C2F4E2 | 
[V:3] A2c3B/ A/G2 | 
[V:4] F,,4C,4 | 
[V:5] c8 | 
[V:6] C2A,2C4 | 
[V:7] F4G4 | 
[V:8] F,4C,4 | 
[V:1] c4z4 | 
[V:2] F4z4 | 
[V:3] A4z4 | 
[V:4] F,,4z4 | 
[V:5] A2A4d2 | 
[V:6] C2F4F2 | 
[V:7] F2c4B2 | 
[V:8] z2F,4D,2 | 
[V:1] z2A2d4 | 
[V:2] z2F4F2 | 
[V:3] z2F2D2FG | 
[V:4] z2F,4D,2 | 
[V:5] c4B4 | 
[V:6] F6F,2- | 
[V:7] A4B4 | 
[V:8] F,4B,,4 | 
[V:1] c4B4- | 
[V:2] F4F4- | 
[V:3] ABcAd4 | 
[V:4] F,4B,,4- | 
[V:5] A4z2B2- | 
[V:6] F,G,A,2z2F,2- | 
[V:7] c4z2d2- | 
[V:8] F,,4z2B,,2- | 
[V:1] B4z4 | 
[V:2] F4z4 | 
[V:3] B4z4 | 
[V:4] B,,4z4 | 
[V:5] B2B2B2B2 | 
[V:6] F,2F2F2F2 | 
[V:7] d2d2d2d2 | 
[V:8] B,,2B,,2B,,2B,,2 | 
[V:1] z2c4c2 | 
[V:2] z2F4F2 | 
[V:3] z2A4A2 | 
[V:4] z2F,,4F,,2 | 
[V:5] A4A4 | 
[V:6] F4C4 | 
[V:7] c2>B2A2F2 | 
[V:8] F,4F,4 | 
[V:1] A2A2B4 | 
[V:2] F2F2FEDC | 
[V:3] c2c2d4 | 
[V:4] F,,2F,,2B,,4 | 
[V:5] z4z2d2- | 
[V:6] z4z2F2- | 
[V:7] z4z2B2- | 
[V:8] z4z2B,,2- | 
[V:1] B4z4 | 
[V:2] B,2F,2z4 | 
[V:3] d4z4 | 
[V:4] B,,4z4 | 
[V:5] d2d2B2B2 | 
[V:6] F2F2F2F2 | 
[V:7] B2B2d2d2 | 
[V:8] B,,2B,,2B,,2B,,2 | 
[V:1] z8 | 
[V:2] z8 | 
[V:3] z8 | 
[V:4] z8 | 
[V:5] ABcBAGFE | 
[V:6] F2F2FEDC | 
[V:7] c2A2c2d2- | 
[V:8] F,4F,4 | 
[V:1] z8 | 
[V:2] z8 | 
[V:3] z8 | 
[V:4] z8 | 
[V:5] D2D2G4- | 
[V:6] B,4_E4 | 
[V:7] dcBAG2c2- | 
[V:8] G,2>F,2_E,D,C,2 | 
[V:1] z8 | 
[V:2] z8 | 
[V:3] z8 | 
[V:4] z8 | 
[V:5] G2D2F4 | 
[V:6] D3C/ B,/C4 | 
[V:7] cBB4A2 | 
[V:8] G,4F,4 | 
[V:1] z2B2B4 | 
[V:2] z2F2F4 | 
[V:3] z2d2d4 | 
[V:4] z2B,,2B,,4 | 
[V:5] F4z4 | 
[V:6] D4z4 | 
[V:7] B4z4 | 
[V:8] B,,4z4 | 
[V:1] A4G2c2- | 
[V:2] F4E2G2- | 
[V:3] c8 | 
[V:4] F,,G,,A,,B,,C,4 | 
[V:5] z8 | 
[V:6] z8 | 
[V:7] z8 | 
[V:8] z8 | 
[V:1] c2BAB2B2 | 
[V:2] G2G2G3G | 
[V:3] d4d2d2 | 
[V:4] G,4G,2G,2 | 
[V:5] z8 | 
[V:6] z8 | 
[V:7] z8 | 
[V:8] z8 | 
[V:1] G2>G2F2DE | 
[V:2] D2B,CDEF2- | 
[V:3] B6A2 | 
[V:4] G,2>G,2D,4- | 
[V:5] z8 | 
[V:6] z8 | 
[V:7] z8 | 
[V:8] z8 | 
[V:1] FG2<A2GF2 | 
[V:2] FED2C2A,2 | 
[V:3] A2FGABc2- | 
[V:4] D,4F,4 | 
[V:5] z8 | 
[V:6] z8 | 
[V:7] z8 | 
[V:8] z8 | 
[V:1] E2F4E2 | 
[V:2] G,2C2>B,2G,2 | 
[V:3] cBA2G4 | 
[V:4] C,8 | 
[V:5] z8 | 
[V:6] z8 | 
[V:7] z8 | 
[V:8] z8 | 
[V:1] F8 | 
[V:2] A,8 | 
[V:3] F8 | 
[V:4] F,,8 | 
[V:5] z2A2A4 | 
[V:6] z2F2F4 | 
[V:7] z2c2c4 | 
[V:8] z2F,2F,4 | 
[V:1] z2d2d4 | 
[V:2] z2B,2F4 | 
[V:3] z2F2B4 | 
[V:4] z2B,,2B,,4 | 
[V:5] B8 | 
[V:6] F8 | 
[V:7] d8 | 
[V:8] B,,8 | 
[V:1] c4z2c2 | 
[V:2] F8 | 
[V:3] A8 | 
[V:4] F,,8 | 
[V:5] z2c2>B2A2 | 
[V:6] z2C2A,B,CD | 
[V:7] z2A2c4 | 
[V:8] z2F,2F,4 | 
[V:1] c2c2c3c | 
[V:2] z2E2E2E2 | 
[V:3] z2c2G2G2 | 
[V:4] z2C,2C,2C,2 | 
[V:5] G4G4 | 
[V:6] EFG2C4- | 
[V:7] c2C2E3F | 
[V:8] C,8 | 
[V:1] G4z2d2 | 
[V:2] E2>E2G2G,A, | 
[V:3] c2>c2Bcdc | 
[V:4] C,2>C,2G,,4- | 
[V:5] z2G2B2B2 | 
[V:6] C2E2D2G,2- | 
[V:7] G2C2GABc | 
[V:8] z2G,2G,2G,2 | 
[V:1] d2d2B3B | 
[V:2] B,C2<D2EF2- | 
[V:3] BAG2z2D2 | 
[V:4] G,,4B,,4 | 
[V:5] B2>B2F4- | 
[V:6] G,2B,2>B,2F,2- | 
[V:7] d6d2 | 
[V:8] G,2>G,2D,4 | 
[V:1] A4c4- | 
[V:2] F2C4F2- | 
[V:3] A2c2A3B | 
[V:4] F,,8 | 
[V:5] F4A4 | 
[V:6] F,2A,2>B,2C2- | 
[V:7] cBAGF4 | 
[V:8] F,8 | 
[V:1] c8 | 
[V:2] F2EDE4 | 
[V:3] c4c4 | 
[V:4] C,8 | 
[V:5] G8 | 
[V:6] C2B,A,G,2C2 | 
[V:7] G8 | 
[V:8] C,8 | 
[V:1] c8 |]  
[V:2] F8 |]  
[V:3] A8 |]  
[V:4] F,,8 |]  
[V:5] A8 |]  
[V:6] C8 |]  
[V:7] F8 |]  
[V:8] F,8 |]  

